X:101 
T:Lad Who Can Do It, The
B:CRE5.036 (Buachaill AtÃÂÃÂÃÂÃÂ¡ in Ann ÃÂÃÂÃÂÃÂ© a DhÃÂÃÂÃÂÃÂ©anamh)
F:file ID: cre.5/101lad_who
N:Breathnach's awkward Gaelic title suggests that it's been
"back translated" (English to Gaelic, instead of the other way
around). I'm never sure why someone thought this was necessary,
since the procedure produces some awful results!
M:6/8
Q:160
R:jig
K:D
(3A/B/c/|dAG FDF|ABA ABc|dAG FDF|def edc|
dAG FDF|ABA ABc|afe f2e|dBA B2:|
g|afb afe|dBB def|afb afe|bee efg|
afb afe|dBB def| afe f2e|dBA B2:|

%%%

